X:23
T: Der Buechabecher Boder, der hot a sammats Kaeppl auf
N: V0005A
O: Europa, Mitteleuropa, Deutschland, Ober - Franken, Buechenbach
R: Geselligkeits - Lied, Scherz
M: 2/4
L: 1/16
K: C
G2 | G2c2B2A2 | G4E2
E2 | G2F2F2F2 | A2G2G2
G2 | G2ccB2A2 | G4E2
E2 | G2F2E2D2 | C4z2
E2 | D3DE3E | F3FE3
E | D3DE3E | F4z2
G2 | G3GG3G | G4z2
G2 | G2F2E2D2 | C4z2
G2 | G2c2B2A2 | G4E2
E2 | G2F2F2F2 | A2G2G2
G2 | G2ccB2A2 | G4E2
E2 | G2F2E2D2 | C4z2

@@@ Tune index: 9752
